icons/folder-features.svg

<svg viewBox="0 0 32 32" fill="none" xmlns="http://www.w3.org/2000/svg">
<path d="M13.844 7.536L12.556 6.464C12.1967 6.1644 11.7438 6.00021 11.276 6H4C3.46957 6 2.96086 6.21071 2.58579 6.58579C2.21071 6.96086 2 7.46957 2 8V24C2 24.5304 2.21071 25.0391 2.58579 25.4142C2.96086 25.7893 3.46957 26 4 26H28C28.5304 26 29.0391 25.7893 29.4142 25.4142C29.7893 25.0391 30 24.5304 30 24V10C30 9.46957 29.7893 8.96086 29.4142 8.58579C29.0391 8.21071 28.5304 8 28 8H15.124C14.6562 7.99979 14.2033 7.8356 13.844 7.536Z" fill="#689F38"/>
<path d="M27.5869 13.583L29.7188 14.0928L23.6885 20.123L20.9883 17.4219L19.5332 18.877L23.6885 23.0322L30.1738 16.5459L30.1133 17.2373L32 19.4951L30.1152 21.7539L30.377 24.7422L27.5869 25.4082L26.127 27.9922L23.5 26.8066L20.873 28L19.4131 25.417L16.623 24.75L16.8848 21.7539L15 19.4951L16.8848 17.2295L16.623 14.2412L19.4131 13.583L20.873 11L23.5 12.1846L26.127 11L27.5869 13.583ZM32 14.7207L30.1738 16.5459L30.377 14.25L29.7188 14.0928L30.5459 13.2666L32 14.7207Z" fill="#DCEDC8"/>
</svg>

<svg xmlns="http://www.w3.org/2000/svg" fill="none" viewBox="0 0 32 32"><path fill="#689f38" d="m13.844 7.536-1.288-1.072A2 2 0 0 0 11.276 6H4a2 2 0 0 0-2 2v16a2 2 0 0 0 2 2h24a2 2 0 0 0 2-2V10a2 2 0 0 0-2-2H15.124a2 2 0 0 1-1.28-.464"/><path fill="#dcedc8" d="m27.587 13.583 2.132.51-6.03 6.03-2.7-2.701-1.456 1.455 4.156 4.155 6.485-6.486-.06.691L32 19.495l-1.885 2.259.262 2.988-2.79.666-1.46 2.584-2.627-1.185L20.873 28l-1.46-2.583-2.79-.667.262-2.996L15 19.495l1.885-2.265-.262-2.989 2.79-.658L20.873 11l2.627 1.185L26.127 11zM32 14.721l-1.826 1.825.203-2.296-.658-.157.827-.826z"/></svg>
